images/indikatorenset/4203.svg

<svg class="highcharts-root" xmlns="http://www.w3.org/2000/svg" viewBox="0 0 485 415" font-family="arial" font-size="12">
    <defs>
        <clipPath id="a">
            <path fill="none" d="M0 0h323v302H0z"/>
        </clipPath>
    </defs>
    <rect fill="#fbfbfb" class="highcharts-background" width="485" height="415" rx="0" ry="0"/>
    <path fill="none" class="highcharts-plot-background" d="M173 41h302v323H173z"/>
    <g class="highcharts-grid highcharts-xaxis-grid">
        <path fill="none" class="highcharts-grid-line" d="M173 70.5h302m-302 30h302m-302 29h302m-302 29h302m-302 30h302m-302 29h302m-302 30h302m-302 29h302m-302 29h302m-302 30h302m-302 29h302m-302-323h302"/>
    </g>
    <g class="highcharts-grid highcharts-yaxis-grid">
        <path fill="none" stroke="#e6e6e6" class="highcharts-grid-line" d="M172.5 41v323m60-323v323m61-323v323m60-323v323m61-323v323m61-323v323"/>
    </g>
    <path fill="none" class="highcharts-plot-border" d="M173 41h302v323H173z"/>
    <g class="highcharts-axis highcharts-xaxis">
        <path fill="none" class="highcharts-tick" stroke="#FFF" d="M173 70.5h-10m10 30h-10m10 29h-10m10 29h-10m10 30h-10m10 29h-10m10 30h-10m10 29h-10m10 29h-10m10 30h-10m10 29h-10m10-324h-10"/>
        <path fill="none" class="highcharts-axis-line" stroke="#ccd6eb" d="M172.5 41v323"/>
    </g>
    <g class="highcharts-axis highcharts-yaxis">
        <path fill="none" class="highcharts-axis-line" d="M173 364h302"/>
    </g>
    <g class="highcharts-series-group">
        <g class="highcharts-series highcharts-series-0 highcharts-column-series highcharts-color-undefined" transform="matrix(0 -1 -1 0 475 364)" clip-path="url(#a)">
            <path fill="#B00000" stroke="#fff" class="highcharts-point highcharts-color-0" d="M300.5 26.5h15v276h-15z"/>
            <path fill="#69929B" stroke="#fff" class="highcharts-point highcharts-color-1" d="M270.5 241.5h15v61h-15z"/>
            <path fill="#CD9C00" stroke="#fff" class="highcharts-point highcharts-color-3" d="M212.5 251.5h15v51h-15z"/>
            <path fill="#CD9C00" stroke="#fff" class="highcharts-point highcharts-color-4" d="M182.5 93.5h15v209h-15z"/>
            <path fill="#CD9C00" stroke="#fff" class="highcharts-point highcharts-color-5" d="M153.5 237.5h15v65h-15z"/>
            <path fill="#CD9C00" stroke="#fff" class="highcharts-point highcharts-color-6" d="M124.5 243.5h15v59h-15z"/>
            <path fill="#CD9C00" stroke="#fff" class="highcharts-point highcharts-color-7" d="M94.5 281.5h15v21h-15z"/>
            <path fill="#CD9C00" stroke="#fff" class="highcharts-point highcharts-color-8" d="M65.5 243.5h15v59h-15z"/>
            <path fill="#CD9C00" stroke="#fff" class="highcharts-point highcharts-color-9" d="M36.5 286.5h15v16h-15z"/>
            <path fill="#CD9C00" stroke="#fff" class="highcharts-point highcharts-color-10" d="M6.5 290.5h15v12h-15z"/>
        </g>
    </g>
    <text x="10" class="highcharts-title" y="21" color="#000" font-size="14" font-weight="700">
        <tspan>Altersquotient nach Staatsangehörigkeit 2015</tspan>
    </text>
    <g class="highcharts-axis-labels highcharts-xaxis-labels" text-anchor="end" color="#000" cursor="default" font-size="11">
        <text x="158" y="60">
            <tspan>Schweiz</tspan>
        </text>
        <text x="158" y="90">
            <tspan>Ausland</tspan>
        </text>
        <text x="158" y="148">
            <tspan>Deutschland</tspan>
        </text>
        <text x="158" y="178">
            <tspan>Italien</tspan>
        </text>
        <text x="158" y="207">
            <tspan>Spanien</tspan>
        </text>
        <text x="158" y="236">
            <tspan>Türkei</tspan>
        </text>
        <text x="158" y="266">
            <tspan>Maghreb und Ägypten</tspan>
        </text>
        <text x="158" y="295">
            <tspan>Ehem. Jugoslawien ohne SLO</tspan>
        </text>
        <text x="158" y="324">
            <tspan>EU-Oststaaten</tspan>
        </text>
        <text x="158" y="354">
            <tspan>Mittel- und Südamerika</tspan>
        </text>
    </g>
    <g class="highcharts-axis-labels highcharts-yaxis-labels" text-anchor="middle" color="#000" cursor="default" font-size="11">
        <text x="173" y="383">
            0
        </text>
        <text x="233.4" y="383">
            10
        </text>
        <text x="293.8" y="383">
            20
        </text>
        <text x="354.2" y="383">
            30
        </text>
        <text x="414.6" y="383">
            40
        </text>
        <text x="468.891" y="383">
            50
        </text>
    </g>
    <text x="10" class="highcharts-credits" y="400" cursor="default" color="#000" font-size="10">
        <tspan>Quelle: Statistisches Amt Basel-Stadt, kantonale Bevölkerungsstatistik</tspan>
    </text>
</svg>

<?xml version="1.0" standalone="no"?>
<!DOCTYPE svg PUBLIC "-//W3C//DTD SVG 1.1//EN" "http://www.w3.org/Graphics/SVG/1.1/DTD/svg11.dtd">
<svg xmlns:xlink="http://www.w3.org/1999/xlink" version="1.1" class="highcharts-root" style="font-family:arial;font-size:12px;" xmlns="http://www.w3.org/2000/svg" viewBox="0 0 485 415">
  <desc>
    Created with Highstock 5.0.14
  </desc>
  <defs>
    <clipPath id="highcharts-9uts5p9-6">
      <rect x="0" y="0" width="323" height="302" fill="none"/>
    </clipPath>
    <clipPath id="highcharts-9uts5p9-7">
      <rect x="0" y="0" width="323" height="302" fill="none"/>
    </clipPath>
  </defs>
  <rect fill="#fbfbfb" class="highcharts-background" x="0" y="0" width="485" height="415" rx="0" ry="0"/>
  <rect fill="none" class="highcharts-plot-background" x="173" y="41" width="302" height="323"/>
  <g class="highcharts-pane-group"/>
  <g class="highcharts-grid highcharts-xaxis-grid ">
    <path fill="none" class="highcharts-grid-line" d="M 173 70.5 L 475 70.5" opacity="1"/>
    <path fill="none" class="highcharts-grid-line" d="M 173 100.5 L 475 100.5" opacity="1"/>
    <path fill="none" class="highcharts-grid-line" d="M 173 129.5 L 475 129.5" opacity="1"/>
    <path fill="none" class="highcharts-grid-line" d="M 173 158.5 L 475 158.5" opacity="1"/>
    <path fill="none" class="highcharts-grid-line" d="M 173 188.5 L 475 188.5" opacity="1"/>
    <path fill="none" class="highcharts-grid-line" d="M 173 217.5 L 475 217.5" opacity="1"/>
    <path fill="none" class="highcharts-grid-line" d="M 173 247.5 L 475 247.5" opacity="1"/>
    <path fill="none" class="highcharts-grid-line" d="M 173 276.5 L 475 276.5" opacity="1"/>
    <path fill="none" class="highcharts-grid-line" d="M 173 305.5 L 475 305.5" opacity="1"/>
    <path fill="none" class="highcharts-grid-line" d="M 173 335.5 L 475 335.5" opacity="1"/>
    <path fill="none" class="highcharts-grid-line" d="M 173 364.5 L 475 364.5" opacity="1"/>
    <path fill="none" class="highcharts-grid-line" d="M 173 41.5 L 475 41.5" opacity="1"/>
  </g>
  <g class="highcharts-grid highcharts-yaxis-grid ">
    <path fill="none" stroke="#e6e6e6" stroke-width="1" class="highcharts-grid-line" d="M 172.5 41 L 172.5 364" opacity="1"/>
    <path fill="none" stroke="#e6e6e6" stroke-width="1" class="highcharts-grid-line" d="M 232.5 41 L 232.5 364" opacity="1"/>
    <path fill="none" stroke="#e6e6e6" stroke-width="1" class="highcharts-grid-line" d="M 293.5 41 L 293.5 364" opacity="1"/>
    <path fill="none" stroke="#e6e6e6" stroke-width="1" class="highcharts-grid-line" d="M 353.5 41 L 353.5 364" opacity="1"/>
    <path fill="none" stroke="#e6e6e6" stroke-width="1" class="highcharts-grid-line" d="M 414.5 41 L 414.5 364" opacity="1"/>
    <path fill="none" stroke="#e6e6e6" stroke-width="1" class="highcharts-grid-line" d="M 475.5 41 L 475.5 364" opacity="1"/>
  </g>
  <rect fill="none" class="highcharts-plot-border" x="173" y="41" width="302" height="323"/>
  <g class="highcharts-axis highcharts-xaxis ">
    <path fill="none" class="highcharts-tick" stroke="#FFFFFF" stroke-width="1" d="M 173 70.5 L 163 70.5" opacity="1"/>
    <path fill="none" class="highcharts-tick" stroke="#FFFFFF" stroke-width="1" d="M 173 100.5 L 163 100.5" opacity="1"/>
    <path fill="none" class="highcharts-tick" stroke="#FFFFFF" stroke-width="1" d="M 173 129.5 L 163 129.5" opacity="1"/>
    <path fill="none" class="highcharts-tick" stroke="#FFFFFF" stroke-width="1" d="M 173 158.5 L 163 158.5" opacity="1"/>
    <path fill="none" class="highcharts-tick" stroke="#FFFFFF" stroke-width="1" d="M 173 188.5 L 163 188.5" opacity="1"/>
    <path fill="none" class="highcharts-tick" stroke="#FFFFFF" stroke-width="1" d="M 173 217.5 L 163 217.5" opacity="1"/>
    <path fill="none" class="highcharts-tick" stroke="#FFFFFF" stroke-width="1" d="M 173 247.5 L 163 247.5" opacity="1"/>
    <path fill="none" class="highcharts-tick" stroke="#FFFFFF" stroke-width="1" d="M 173 276.5 L 163 276.5" opacity="1"/>
    <path fill="none" class="highcharts-tick" stroke="#FFFFFF" stroke-width="1" d="M 173 305.5 L 163 305.5" opacity="1"/>
    <path fill="none" class="highcharts-tick" stroke="#FFFFFF" stroke-width="1" d="M 173 335.5 L 163 335.5" opacity="1"/>
    <path fill="none" class="highcharts-tick" stroke="#FFFFFF" stroke-width="1" d="M 173 364.5 L 163 364.5" opacity="1"/>
    <path fill="none" class="highcharts-tick" stroke="#FFFFFF" stroke-width="1" d="M 173 40.5 L 163 40.5" opacity="1"/>
    <path fill="none" class="highcharts-axis-line" stroke="#ccd6eb" stroke-width="1" d="M 172.5 41 L 172.5 364"/>
  </g>
  <g class="highcharts-axis highcharts-yaxis ">
    <path fill="none" class="highcharts-axis-line" d="M 173 364 L 475 364"/>
  </g>
  <g class="highcharts-series-group">
    <g class="highcharts-series highcharts-series-0 highcharts-column-series highcharts-color-undefined " transform="translate(475,364) rotate(90) scale(-1,1) scale(1 1)" clip-path="url(#highcharts-9uts5p9-7)">
      <rect x="300.5" y="26.5" width="15" height="276" fill="#B00000" stroke="#ffffff" stroke-width="1" class="highcharts-point highcharts-color-0"/>
      <rect x="270.5" y="241.5" width="15" height="61" fill="#69929B" stroke="#ffffff" stroke-width="1" class="highcharts-point highcharts-color-1"/>
      <rect x="241.5" y="302.5" width="15" height="0" fill="#CD9C00" stroke="#ffffff" stroke-width="1" class="highcharts-point highcharts-color-2"/>
      <rect x="212.5" y="251.5" width="15" height="51" fill="#CD9C00" stroke="#ffffff" stroke-width="1" class="highcharts-point highcharts-color-3"/>
      <rect x="182.5" y="93.5" width="15" height="209" fill="#CD9C00" stroke="#ffffff" stroke-width="1" class="highcharts-point highcharts-color-4"/>
      <rect x="153.5" y="237.5" width="15" height="65" fill="#CD9C00" stroke="#ffffff" stroke-width="1" class="highcharts-point highcharts-color-5"/>
      <rect x="124.5" y="243.5" width="15" height="59" fill="#CD9C00" stroke="#ffffff" stroke-width="1" class="highcharts-point highcharts-color-6"/>
      <rect x="94.5" y="281.5" width="15" height="21" fill="#CD9C00" stroke="#ffffff" stroke-width="1" class="highcharts-point highcharts-color-7"/>
      <rect x="65.5" y="243.5" width="15" height="59" fill="#CD9C00" stroke="#ffffff" stroke-width="1" class="highcharts-point highcharts-color-8"/>
      <rect x="36.5" y="286.5" width="15" height="16" fill="#CD9C00" stroke="#ffffff" stroke-width="1" class="highcharts-point highcharts-color-9"/>
      <rect x="6.5" y="290.5" width="15" height="12" fill="#CD9C00" stroke="#ffffff" stroke-width="1" class="highcharts-point highcharts-color-10"/>
    </g>
    <g class="highcharts-markers highcharts-series-0 highcharts-column-series highcharts-color-undefined " transform="translate(475,364) rotate(90) scale(-1,1) scale(1 1)" clip-path="none"/>
  </g>
  <text x="10" text-anchor="start" class="highcharts-title" style="color:#000000;font-size:14px;font-weight:bold;fill:#000000;" y="21">
    <tspan>Altersquotient nach Staatsangehörigkeit 2015</tspan>
  </text>
  <g class="highcharts-axis-labels highcharts-xaxis-labels ">
    <text x="158" style="color:#000000;cursor:default;font-size:11px;fill:#000000;" text-anchor="end" transform="translate(0,0)" y="60" opacity="1">
      <tspan>Schweiz</tspan>
    </text>
    <text x="158" style="color:#000000;cursor:default;font-size:11px;fill:#000000;" text-anchor="end" transform="translate(0,0)" y="90" opacity="1">
      <tspan>Ausland</tspan>
    </text>
    <text x="158" style="color:#000000;cursor:default;font-size:11px;fill:#000000;" text-anchor="end" transform="translate(0,0)" y="125" opacity="1"/>
    <text x="158" style="color:#000000;cursor:default;font-size:11px;fill:#000000;" text-anchor="end" transform="translate(0,0)" y="148" opacity="1">
      <tspan>Deutschland</tspan>
    </text>
    <text x="158" style="color:#000000;cursor:default;font-size:11px;fill:#000000;" text-anchor="end" transform="translate(0,0)" y="178" opacity="1">
      <tspan>Italien</tspan>
    </text>
    <text x="158" style="color:#000000;cursor:default;font-size:11px;fill:#000000;" text-anchor="end" transform="translate(0,0)" y="207" opacity="1">
      <tspan>Spanien</tspan>
    </text>
    <text x="158" style="color:#000000;cursor:default;font-size:11px;fill:#000000;" text-anchor="end" transform="translate(0,0)" y="236" opacity="1">
      <tspan>Türkei</tspan>
    </text>
    <text x="158" style="color:#000000;cursor:default;font-size:11px;fill:#000000;" text-anchor="end" transform="translate(0,0)" y="266" opacity="1">
      <tspan>Maghreb und Ägypten</tspan>
    </text>
    <text x="158" style="color:#000000;cursor:default;font-size:11px;fill:#000000;" text-anchor="end" transform="translate(0,0)" y="295" opacity="1">
      <tspan>Ehem. Jugoslawien ohne SLO</tspan>
    </text>
    <text x="158" style="color:#000000;cursor:default;font-size:11px;fill:#000000;" text-anchor="end" transform="translate(0,0)" y="324" opacity="1">
      <tspan>EU-Oststaaten</tspan>
    </text>
    <text x="158" style="color:#000000;cursor:default;font-size:11px;fill:#000000;" text-anchor="end" transform="translate(0,0)" y="354" opacity="1">
      <tspan>Mittel- und Südamerika</tspan>
    </text>
  </g>
  <g class="highcharts-axis-labels highcharts-yaxis-labels ">
    <text x="173" style="color:#000000;cursor:default;font-size:11px;fill:#000000;" text-anchor="middle" transform="translate(0,0)" y="383" opacity="1">
      0
    </text>
    <text x="233.4" style="color:#000000;cursor:default;font-size:11px;fill:#000000;" text-anchor="middle" transform="translate(0,0)" y="383" opacity="1">
      10
    </text>
    <text x="293.8" style="color:#000000;cursor:default;font-size:11px;fill:#000000;" text-anchor="middle" transform="translate(0,0)" y="383" opacity="1">
      20
    </text>
    <text x="354.2" style="color:#000000;cursor:default;font-size:11px;fill:#000000;" text-anchor="middle" transform="translate(0,0)" y="383" opacity="1">
      30
    </text>
    <text x="414.6" style="color:#000000;cursor:default;font-size:11px;fill:#000000;" text-anchor="middle" transform="translate(0,0)" y="383" opacity="1">
      40
    </text>
    <text x="468.890625" style="color:#000000;cursor:default;font-size:11px;fill:#000000;" text-anchor="middle" transform="translate(0,0)" y="383" opacity="1">
      50
    </text>
  </g>
  <text x="10" class="highcharts-credits" text-anchor="start" style="cursor:default;color:#000000;font-size:10px;fill:#000000;" y="400">
    <tspan>Quelle: Statistisches Amt Basel-Stadt, kantonale Bevölkerungsstatistik</tspan>
  </text>
</svg>
